X:1
T:Title
%%score 1 { 2 | 3 }
L:1/8
Q:1/4=86
M:6/8
K:F
V:1 treble nm="Grand Piano, Soprano"
V:2 bass nm="Choir Pad, From the Cyber Hymnal™"
V:3 bass 
V:1
 CC[CF] [CF][CF][CG] | [FA][EG][EG] [EG][EG][FA] | [GB][FA][Fc] [Fc][Fc][FA] | %3
w: By~William~James~Kirkpatrick,~1899 * * * * *|||
 [CF][=B,D][B,G] [B,F] [CE]2 | CC[CF] [CF][CF][CG] | [FA][EG][EG] [EG][EG][GB] | %6
w: |||
 [GB][FA][Fc] [Fc][Fc][FA] | [CF][DG]D [CE] [CF]2 | [FA][EG]>[EG] [EG][EG][CE] | %9
w: |||
 [DF][Ec]>[Ec] [Ec][Ec][EG] | [Ec][Ge]>[Ge] [Ge][Ge][Gd] | [Gc][Fd][FA] [F=B] [Ec]2 | %12
w: |||
 [GB][FA]>[FA] [FA][FA][GB] | [Ac][FB]>[FB] [FB][FB][Fc] | [Fd][Fc]>[Fc] [Fc][Fc][FA] | %15
w: |||
 [CF][DG]D [CE] [CF]2- | [CF]6 |] %17
w: ||
V:2
 A,A,A, A,A,B, | CCC CCC | CC[K:bass]A, A,A,C | A,G,G, G, G,2 | B,A,A, A,A,B, | CCC CCC | %6
 CC[K:bass]A, A,A,C | A,B,B, B, A,2 | CC>C CC[K:bass]G, | CG,>G, G,G,G, | G,[K:treble]C>C CC=B, | %11
 CA,D D C2 | CC>C CCC | CD>D D[K:bass]B,A, | B,A,>A, A,A,C | A,B,B, B, A,2- | A,6 |] %17
V:3
 F,F,F, F,F,F, | F,C,C, C,C,C, | C,F,F, F,F,F, | .F,3 G,, C,2 | E,F,F, F,F,F, | F,C,C, C,C,C, | %6
 C,F,F, F,F,F, | F,B,,B,, C, F,2 | F,C,>C, C,C,C, | C,C,>C, C,C,C, | C,C,>C, C,C,D, | %11
 E,F,F, G, C,2 | C,F,>F, F,F,F, | F,B,,>B,, B,,D,C, | B,,F,>F, F,F,F, | F,B,,B,, C, F,2- | F,6 |] %17

